icon-themes/sifr_svg/cmd/lc_basicshapes.hexagon.svg

<svg viewBox="0 0 24 24" xmlns="http://www.w3.org/2000/svg"><g fill="#555753"><path d="m5 2-3 10 3 10h14l3-10-3-10zm1.3183594 2h11.3632816l2.142578 8-2.142578 8h-11.3632816l-2.1425782-8z"/><path d="m6.3183594 4h11.3632816l2.142578 8-2.142578 8h-11.3632816l-2.1425782-8z" opacity=".35"/></g></svg>

<svg xmlns="http://www.w3.org/2000/svg" viewBox="0 0 24 24">
  <path
     style="fill:#555753"
     d="M 5,2 2,12 5,22 H 19 L 22,12 19,2 Z M 6.3183594,4 H 17.681641 l 2.142578,8 -2.142578,8 H 6.3183594 L 4.1757812,12 Z"
     />
  <path
     style="opacity:0.35;fill:#555753"
     d="M 6.3183594,4 H 17.681641 l 2.142578,8 -2.142578,8 H 6.3183594 L 4.1757812,12 Z"
     />
</svg>
